X:931
T:Reel 931
M:4/4
K:Dmaj
L:1/8
AG|FGAF DEDE|FGAB =c2AG|FGAF DEFG| (3fga ec dBAG|FGAF D2D2|EFGA BGE2|FGAc dcec|dcAG F2|DE|FGAB AGFG|fdec dcAG|FGAB cBAG| (3FGF EF GFDE|FGAc dded|cABG A3g|afge fdec|dcAF G2|AB|cBcB cedB|cABG A2AG|FGAB c2BA|eaaf ecdB|cdef g2ag|fdec dcAG|BGGB ABce|dfed cABG|
